X:40
T:Boney Lads. LIT.040
T:Because he was a Bonnie Lad,aka. LIT.040
M:2/2
Q:1/4=140
L:1/8
B:Wm. Litten MS, 1802
Z:Village Music Project 2017 Anne Wride
K:A
d | cB A=g fa ec | df ec B2B2 | cB A=g fa ec | df ec A2 A :|
|:d | cA ec fd ec | df ec B2B2 | cA eA fd ec | df ec A2 A2|
cA eA fd ec | df ec B2 Bg | af ge fd ec | df ec A2 A :|

